markets/FARTCOIN.svg

<svg width="42" height="42" viewBox="0 0 42 42" fill="none" xmlns="http://www.w3.org/2000/svg">
<g clip-path="url(#clip0_9945_9998)">
<circle cx="21" cy="21" r="21" fill="#131514"/>
<path d="M18.1412 21.6238L17.7773 21.9876L18.1412 22.3515M25.5223 19.8564L25.1584 20.2203L25.5223 20.5842M13.0471 24.3267V22.9233M13.0471 19.2327V17.7252M13.0471 20.896V19.4406M13.0471 22.6634V21.2079M24.5347 24.3267V22.9233M24.5347 22.6634V21.2079M26.198 22.6634V21.2079M19.5444 20.896V19.4406M19.5444 22.6634V21.2079M21.208 20.896V19.4406M21.208 22.6634V21.2079M18.8169 24.3267V22.9233M18.8169 20.896V19.4406M15.49 20.896V19.4406M14.6584 24.3267V22.9233M13.8267 19.2327V17.7252M13.8267 20.896V19.4406M13.8267 22.6634V21.2079M30.2524 19.2327V17.7252M30.2524 20.896V19.4406M35.9702 19.2327V17.7252M35.9702 20.896V19.4406M11.4355 24.3267V22.9233M11.4355 20.896V19.4406M2.91095 20.7921L3.47249 19.5965M2.10525 22.5074L2.64238 21.3639M1.29956 24.2228L1.81227 23.1312M3.74263 19.0214L4.27818 17.8812M8.57672 20.7921L9.13826 19.5965M7.77103 22.5074L8.30815 21.3639M6.96533 24.2228L7.47805 23.1312M9.4084 19.0214L9.94395 17.8812M37.2698 20.7921L37.8314 19.5965M36.4641 22.5074L37.0013 21.3639M35.6584 24.2228L36.1712 23.1312M38.1015 19.0214L38.6371 17.8812M22.6114 20.7921L23.1729 19.5965M21.8057 22.5074L22.3428 21.3639M21 24.2228L21.5127 23.1312M23.4431 19.0214L23.9786 17.8812M27.4976 20.7921L28.0592 19.5965M26.6919 22.5074L27.2291 21.3639M25.8862 24.2228L26.3989 23.1312M29.1609 20.7921L29.7225 19.5965M28.3553 22.5074L28.8924 21.3639M27.5496 24.2228L28.0623 23.1312M31.5521 20.7921L32.1136 19.5965M30.7464 22.5074L31.2835 21.3639M29.9407 24.2228L30.4534 23.1312M33.2154 20.7921L33.7769 19.5965M32.4097 22.5074L32.9468 21.3639M31.604 24.2228L32.1167 23.1312M34.8787 20.7921L35.4403 19.5965M34.073 22.5074L34.6102 21.3639M33.2673 24.2228L33.78 23.1312M38.9332 20.7921L39.4947 19.5965M38.1275 22.5074L38.6646 21.3639M37.3218 24.2228L37.8345 23.1312M23.469 22.5074L24.0062 21.3639M22.6633 24.2228L23.176 23.1312M25.1064 19.0214L25.642 17.8812M16.5974 24.2228L16.0847 23.1312M18.2607 24.2228L17.748 23.1312M20.1392 24.2228L20.6519 23.1312M18.2087 19.0214L17.6732 17.8812M18.4529 19.0214L18.9884 17.8812M25.8862 19.0214L26.4218 17.8812M27.5496 19.0214L28.0851 17.8812M30.7722 19.0214L31.3078 17.8812M33.2673 19.0214L33.8029 17.8812M36.49 19.0214L37.0255 17.8812M10.3441 20.7921L10.9056 19.5965M8.73267 24.2228L9.24538 23.1312M8.68066 19.0214L9.21622 17.8812M5.37988 22.5074L5.91701 21.3639M4.52227 20.7921L5.08382 19.5965M2.91089 24.2228L3.4236 23.1312M4.41821 17.3614H9.30435M10.188 17.3614H12.6311M14.2945 17.3614H17.5692M19.2326 17.3614H25.7301M26.5618 17.3614H29.7845M31.4479 17.3614H34.7747M35.5024 17.3614H36.438M38.7771 17.3614H40.4405M3.58667 22.5594H5.354M9.25244 22.5594H11.8515M5.198 20.7921H6.2376M15.906 19.1287L16.9456 19.1287M15.802 20.896H16.8416M30.4604 20.896H31.5001M36.2822 20.896H37.3218M15.802 22.5594H16.8416M19.2327 19.1287L19.9604 19.1287M21.6238 19.1287L23.3911 19.1287M26.51 19.1287L27.4457 19.1287M1.87134 24.3267H2.91094M7.58911 24.3267H8.62872M11.7476 24.3267H12.5792M13.4109 24.3267H14.2426M16.7375 24.3267H17.5692M19.2327 24.3267H20.0644M21.6238 24.3267H22.4555M24.9504 24.3267H25.7821M26.6138 24.3267H27.4455M30.6682 24.3267H31.4999M32.2278 24.3267H33.0595M36.3862 24.3267H37.2179M5.302 19.1287H8.62873M16.8936 19.6419C17.1111 19.7677 17.2574 20.0029 17.2574 20.2723C17.2574 20.5416 17.1111 20.7768 16.8936 20.9026M24.5866 20.3828C24.5866 20.5811 24.5073 20.7609 24.3787 20.8921" stroke="#B4B4B4" stroke-width="0.207921"/>
</g>
<defs>
<clipPath id="clip0_9945_9998">
<rect width="42" height="42" fill="white"/>
</clipPath>
</defs>
</svg>

<svg width="42" height="42" fill="none" viewBox="0 0 42 42" xmlns="http://www.w3.org/2000/svg">
  <g clip-path="url(#a)">
    <circle cx="21" cy="21" r="21" fill="#131514"/>
    <path stroke="#B4B4B4" stroke-width=".208" d="m18.141 21.624-.364.364.364.364m7.381-2.496-.364.364.364.364m-12.475 3.743v-1.404m0-3.69v-1.508m0 3.171v-1.455m0 3.222v-1.455m11.488 3.119v-1.404m0-.26v-1.455m1.663 1.455v-1.455m-6.654-.312v-1.455m0 3.222v-1.455m1.664-.312v-1.455m0 3.222v-1.455m-2.391 3.119v-1.404m0-2.027v-1.455m-3.327 1.455v-1.455m-.832 4.886v-1.404m-.831-3.69v-1.508m0 3.171v-1.455m0 3.222v-1.455m16.425-1.975v-1.508m0 3.171v-1.455m5.718-.208v-1.508m0 3.171v-1.455m-24.534 4.886v-1.404m0-2.027v-1.455M2.91 20.792l.561-1.196m-1.367 2.911.537-1.143M1.3 24.223l.512-1.092m1.93-4.11.536-1.14m4.299 2.911.561-1.196m-1.367 2.911.537-1.143m-1.343 2.859.513-1.092m1.93-4.11.536-1.14m27.326 2.911.561-1.196m-1.367 2.911.537-1.143m-1.343 2.859.513-1.092m1.93-4.11.536-1.14m-16.026 2.911.562-1.196m-1.367 2.911.537-1.143M21 24.223l.513-1.092m1.93-4.11.536-1.14m3.519 2.911.561-1.196m-1.367 2.911.537-1.143m-1.343 2.859.513-1.092m2.762-2.339.561-1.196m-1.367 2.911.537-1.143m-1.342 2.859.512-1.092m3.49-2.339.562-1.196m-1.368 2.911.538-1.143m-1.343 2.859.512-1.092m2.762-2.339.562-1.196m-1.367 2.911.537-1.143m-1.343 2.859.513-1.092m2.762-2.339.561-1.196m-1.367 2.911.537-1.143m-1.343 2.859.513-1.092m5.153-2.339.562-1.196m-1.367 2.911.537-1.143m-1.343 2.859.512-1.092m-14.365-.624.537-1.143m-1.343 2.859.513-1.092m1.93-4.11.536-1.14m-9.045 6.342-.512-1.092m2.176 1.092-.513-1.092m2.391 1.092.513-1.092m-2.443-4.11-.536-1.14m.78 1.14.535-1.14m6.898 1.14.536-1.14m1.128 1.14.535-1.14m2.687 1.14.536-1.14m1.96 1.14.535-1.14m2.687 1.14.535-1.14m-26.68 2.911.56-1.196m-2.172 4.627.512-1.092m-.564-4.11.535-1.14M5.38 22.507l.537-1.143m-1.395-.572.562-1.196M2.91 24.223l.513-1.092m.994-5.77h4.886m.884 0h2.443m1.663 0h3.275m1.664 0h6.497m.832 0h3.223m1.663 0h3.327m.727 0h.936m2.34 0h1.663M3.587 22.56h1.767m3.898 0h2.6m-6.654-1.767h1.04m9.668-1.663h1.04m-1.144 1.767h1.04m13.618 0h1.04m4.782 0h1.04m-21.52 1.663h1.04m2.39-3.43h.728m1.664 0h1.767m3.119 0h.936M1.87 24.327h1.04m4.678 0h1.04m3.119 0h.831m.832 0h.832m2.495 0h.831m1.664 0h.831m1.56 0h.832m2.494 0h.832m.832 0h.831m3.223 0h.832m.728 0h.831m3.327 0h.832M5.302 19.129h3.327m8.265.513a.727.727 0 0 1 0 1.26m7.693-.52c0 .2-.08.379-.208.51"/>
  </g>
  <defs>
    <clipPath id="a">
      <path fill="#fff" d="M0 0h42v42H0z"/>
    </clipPath>
  </defs>
</svg>
